X: 1
T: HUNTSMANS' -- HORNPIPE
B: Ryan's Mammoth Collection of Fiddle Tunes
R: hornpipe
M: 2/4
L: 1/16
Z: Contributed 20010912191159 by John Chambers jmchambers:rcn.net
K: C
(uGE) \
| .C2kc2kc2 (Bc) | dBGB .c2(cd) | "4"ecec fdfd | gece dBGE |
| .C2kc2kc2 (Bc) | dBGB .c2(Bc) |  dagf edcB | [c2E2][c2E2][c2E2] :|
|: (uef) \
| gfed cBAG | .A2kF2kF2 (fg) | agfe dcBA |  .B2kG2kG2 (ef) |
| gege fafa | gege fafa | geaf edcB | [c2E2][c2E2][c2E2] :|
